icons/arrow-up-right-contained.svg

<svg fill="none" viewBox="0 0 24 24"><path fill="currentColor" d="M7.5 14.4a1 1 0 0 0 2 .2zm1.5-5.4 0-1a1 1 0 0 0-1 1zm5.6.5a1 1 0 1 0-.2-2zm-.3 6.2a1 1 0 1 0 1.4-1.4zm-4.8-1.1.5-5.5-2-.2-.5 5.5zm-.4-4.6 5.5-.5-.2-2-5.5.5zm-.8-.3 6 6 1.4-1.4-6-6zm3.7-6.3a8.6 8.6 0 0 1 8.6 8.6h2c0-5.9-4.7-10.6-10.6-10.6zm8.6 8.6a8.6 8.6 0 0 1-8.6 8.6v2c5.9 0 10.6-4.7 10.6-10.6zm-8.6 8.6a8.6 8.6 0 0 1-8.6-8.6h-2c0 5.9 4.7 10.6 10.6 10.6zm-8.6-8.6a8.6 8.6 0 0 1 8.6-8.6v-2c-5.9 0-10.6 4.7-10.6 10.6z"/></svg>

<svg fill="none" viewBox="0 0 24 24"><path fill="currentColor" d="M7.5 14.4a1 1 0 0 0 2 .2zM9 9V8a1 1 0 0 0-1 1zm5.6.5a1 1 0 1 0-.2-2zm-.3 6.2a1 1 0 1 0 1.4-1.4zm-4.8-1.1L10 9l-2-.2-.5 5.5zM9.1 10l5.5-.5-.2-2L9 8zm-.8-.3 6 6 1.4-1.4-6-6zM12 3.4a8.6 8.6 0 0 1 8.6 8.6h2c0-5.9-4.7-10.6-10.6-10.6zm8.6 8.6a8.6 8.6 0 0 1-8.6 8.6v2c5.9 0 10.6-4.7 10.6-10.6zM12 20.6A8.6 8.6 0 0 1 3.4 12h-2c0 5.9 4.7 10.6 10.6 10.6zM3.4 12A8.6 8.6 0 0 1 12 3.4v-2C6.1 1.4 1.4 6.1 1.4 12z"/></svg>
